Bloom-Colors/16x16/devices/deja-dup.svg

<svg width="16" height="16" version="1.1" xmlns="http://www.w3.org/2000/svg">
<path d="m3 1s-2 0-2 2v10s0 2 2 2h10s2 0 2-2v-10c0-2-2-2-2-2h-10zm5 3a4 4 0 0 1 4 4 4 4 0 0 1-2.2109 3.576l-0.8946-1.7869a2 2 0 0 0 1.1055-1.7891 2 2 0 0 0-2-2 2 2 0 0 0-2 2 2 2 0 0 0 1.1055 1.7871l-0.8926 1.7849a4 4 0 0 1-2.2129-3.572 4 4 0 0 1 4-4z" fill="#666"/>
</svg>

<svg xmlns="http://www.w3.org/2000/svg" width="16" height="16" version="1.1">
 <path style="fill:#444444" d="M 3 1 C 3 1 1 1 1 3 L 1 13 C 1 13 1 15 3 15 L 13 15 C 13 15 15 15 15 13 L 15 3 C 15 1 13 1 13 1 L 3 1 z M 8 4 A 4 4 0 0 1 12 8 A 4 4 0 0 1 9.7891 11.576 L 8.8945 9.7891 A 2 2 0 0 0 10 8 A 2 2 0 0 0 8 6 A 2 2 0 0 0 6 8 A 2 2 0 0 0 7.1055 9.7871 L 6.2129 11.572 A 4 4 0 0 1 4 8 A 4 4 0 0 1 8 4 z"/>
</svg>
